icons/vivo-new/light/tickets-light.svg

<svg width="24" height="24" viewBox="0 0 24 24" fill="none" xmlns="http://www.w3.org/2000/svg">
<path d="M10.8668 9.45262L9.45262 10.8668L8.85158 10.2658L10.2658 8.85158L10.8668 9.45262Z" fill="black"/>
<path fill-rule="evenodd" clip-rule="evenodd" d="M6.37236 15.9183L11.3195 20.8654C12.8269 22.3728 15.27 22.3737 16.7763 20.8674L20.8674 16.7763C22.3737 15.27 22.3728 12.8269 20.8654 11.3195L15.9183 6.37236L12.5933 7.1385L13.3595 3.81352L12.6771 3.13116C11.1697 1.62374 8.72656 1.62283 7.22026 3.12914L3.12914 7.22026C1.62283 8.72656 1.62374 11.1697 3.13116 12.6771L3.81352 13.3595L7.1385 12.5933L6.37236 15.9183ZM4.08156 12.4254L3.7322 12.0761C2.5563 10.9002 2.55624 8.99524 3.73018 7.8213L7.8213 3.73018C8.99524 2.55624 10.9002 2.5563 12.0761 3.7322L12.4254 4.08156L11.765 6.94764C11.6992 7.23313 11.7851 7.53238 11.9923 7.73954C12.1994 7.9467 12.4987 8.03258 12.7842 7.96679L15.6503 7.3064L20.2644 11.9205C21.4403 13.0964 21.4403 15.0013 20.2664 16.1753L16.1753 20.2664C15.0013 21.4403 13.0964 21.4403 11.9205 20.2644L7.3064 15.6503L7.96679 12.7842C8.03258 12.4987 7.9467 12.1994 7.73954 11.9923C7.53238 11.7851 7.23313 11.6992 6.94764 11.765L4.08156 12.4254Z" fill="black"/>
</svg>

<svg xmlns="http://www.w3.org/2000/svg" width="24" height="24" fill="none"><path fill="#000" d="m10.867 9.453-1.414 1.414-.601-.601 1.414-1.414.6.6Z"/><path fill="#000" d="m6.372 15.918 4.947 4.947a3.859 3.859 0 0 0 5.457.002l4.091-4.09a3.859 3.859 0 0 0-.002-5.458l-4.947-4.947-3.325.766.767-3.324-.683-.683A3.859 3.859 0 0 0 7.22 3.13L3.13 7.22a3.859 3.859 0 0 0 .001 5.457l.683.683 3.324-.767-.766 3.325Zm-2.29-3.493-.35-.349a3.009 3.009 0 0 1-.002-4.255l4.091-4.09a3.009 3.009 0 0 1 4.255.001l.35.35-.661 2.866a.85.85 0 0 0 1.02 1.019l2.865-.66 4.614 4.614a3.009 3.009 0 0 1 .002 4.254l-4.09 4.091a3.009 3.009 0 0 1-4.255-.002L7.306 15.65l.66-2.866a.85.85 0 0 0-1.018-1.019l-2.866.66Z"/></svg>
